svgs/sharp-regular/spinner.svg

<svg xmlns="http://www.w3.org/2000/svg" viewBox="0 0 512 512"><!--! Font Awesome Pro 6.6.0 by @fontawesome - https://fontawesome.com License - https://fontawesome.com/license (Commercial License) Copyright 2024 Fonticons, Inc. --><path d="M288 0l0 64-64 0 0-64 64 0zm81.1 414.4l45.3-45.3 45.3 45.3-45.3 45.3-45.3-45.3zM224 448l64 0 0 64-64 0 0-64zM52.4 97.6L97.6 52.4l45.3 45.3L97.6 142.9 52.4 97.6zM64 224l0 64L0 288l0-64 64 0zM52.4 414.4l45.3-45.3 45.3 45.3L97.6 459.6 52.4 414.4zM512 224l0 64-64 0 0-64 64 0z"/></svg>

<svg xmlns="http://www.w3.org/2000/svg" viewBox="0 0 512 512"><!--! Font Awesome Pro 6.4.2 by @fontawesome - https://fontawesome.com License - https://fontawesome.com/license (Commercial License) Copyright 2023 Fonticons, Inc. --><path d="M288 0V64H224V0h64zm81.1 414.4l45.3-45.3 45.3 45.3-45.3 45.3-45.3-45.3zM224 448h64v64H224V448zM52.4 97.6L97.6 52.4l45.3 45.3L97.6 142.9 52.4 97.6zM64 224v64H0V224H64zM52.4 414.4l45.3-45.3 45.3 45.3L97.6 459.6 52.4 414.4zM512 224v64H448V224h64z"/></svg>
